!!!!SEGMENT: T613_Hin-w9p44m1-23.krn
!!!COM: Hindemith, Paul
!!!OTL: III: Finale: Äußerst lebhaft (Extremely Lively)
!!!AGN: Instrumental
!!!AGN-sub: Chamber
!!!CNT: German
!!!ODT: 1920
!!!OPR: String Quartet Op. 16 in C Major
!!!filename: T613_Hin-w9p44m1-23.krn
**kern	**dynam	**kern	**dynam	**kern	**dynam	**kern	**dynam
*grp:A	*	*grp:A	*	*grp:B	*	*grp:B	*
*part4	*	*part3	*	*part2	*	*part1	*
*staff4	*	*staff3	*	*staff2	*	*staff1	*
*I"Violoncello	*	*I"Viola	*	*I"Violin II	*	*I"Violin I	*
*I'Vc.	*	*I'Vla.	*	*I'Vln. II	*	*I'Vln. I	*
*ICstr	*	*ICstr	*	*ICstr	*	*ICstr	*
*Icello	*	*Iviola	*	*Ivioln	*	*Ivioln	*
*clefF4	*	*clefC3	*	*clefG2	*	*clefG2	*
*k[]	*	*k[]	*	*k[]	*	*k[]	*
*C:	*	*C:	*	*C:	*	*C:	*
*M2/8	*	*M2/8	*	*M2/8	*	*M2/8	*
*M3/8	*	*M3/8	*	*M3/8	*	*M3/8	*
=1	=1	=1	=1	=1	=1	=1	=1
*Xtuplet	*	*	*	*	*	*	*
*	*	*Xtuplet	*	*	*	*	*
!	!	!	!	!	!	!LO:TX:t=[[quarter]=120]	!
!	!	!	!	!	!	!LO:TX:a:B:t=FINALE Äußerst lebhaft (Ganze Takte M.M. 128-136) Das Zeitmaß der ganzen Takte ist ohne Rücksicht auf die Taktvorschrift stets das Gleiche. Also [quarter] immer gleich [quarter-dot] !	!
!	!	!	!	!	!	!LO:TX:t=P:problem:time signature includes 3/8 beside 2/8	!
12r	.	12r	.	4r)j	.	4r	.
(12CL	f <	(12GL	f <	.	.	.	.
12DJ)	.	12AJ)	.	.	.	.	.
=2	=2	=2	=2	=2	=2	=2	=2
12FL	.	12cL	.	16ccLL	mf	16cccLL	mf
.	.	.	.	16cc	.	16ccc	.
(12F	.	(12c	.	.	.	.	.
.	.	.	.	16dd	.	16ddd	.
12GJ)	[	12dJ)	[	.	.	.	.
.	.	.	.	16aJJ	.	16aaJJ	.
=3	=3	=3	=3	=3	=3	=3	=3
12B-XL	.	12fL	.	[4cc	.	[4ccc	.
(12B-	.	(12f	.	.	.	.	.
12GJ)	.	12dJ)	.	.	.	.	.
=4	=4	=4	=4	=4	=4	=4	=4
(12AL	>	(12eL	>	16ccLL]	.	16cccLL]	.
.	.	.	.	16cc	.	16ccc	.
12E)	.	12B)	.	.	.	.	.
.	.	.	.	16dd	.	16ddd	.
(12GJ	.	(12dJ	.	.	.	.	.
.	.	.	.	16aJJ	.	16aaJJ	.
=5	=5	=5	=5	=5	=5	=5	=5
12DL)	.	12AL)	.	[4cc	.	[4ccc	.
(12E	]	(12B	]	.	.	.	.
12BBJ)	.	12F#XJ)	.	.	.	.	.
=6	=6	=6	=6	=6	=6	=6	=6
12AAL	.	12EL	.	16ccLL]	.	16cccLL]	.
.	.	.	.	16cc	.	16ccc	.
(12AA	.	(12E	.	.	.	.	.
.	.	.	.	16dd	.	16ddd	.
12GGJ 12D)	.	12GJ)	.	.	.	.	.
.	.	.	.	16aJJ	.	16aaJJ	.
=7	=7	=7	=7	=7	=7	=7	=7
12FFL 12C	<	12DL 12A	<	[4cc	<	[4ccc	<
(12FF 12C	.	(12D 12A	.	.	.	.	.
12EEJ 12BB)	.	12EJ 12B)	.	.	.	.	.
=8	=8	=8	=8	=8	=8	=8	=8
12DDL 12AA	.	12FL 12c	.	16ccLL]	.	16cccLL]	.
.	.	.	.	16cc	.	16ccc	.
(12DD 12AA	.	(12F 12c	.	.	.	.	.
.	.	.	.	16dd	.	16ddd	.
12CCJ 12GG)	[	12GJ 12d)	[	.	.	.	.
.	.	.	.	16aJJ	[	16aaJJ	[
=9	=9	=9	=9	=9	=9	=9	=9
*	*	*	*	*Xtuplet	*	*Xtuplet	*
[4DD [4AA	mf	[4F [4c	mf	12aL	f <	12cccL	f <
.	.	.	.	(12ff	.	(12ccc	.
.	.	.	.	12ggJ)	[	12dddJ)	[
!!LO:REH:t=10
=10	=10	=10	=10	=10	=10	=10	=10
*	*	*	*	*^	*	*	*
8DDL] 8AA]	.	16FLL] 16c]	.	12cccL	12a	>	12gggL	>
.	.	16c	.	.	.	.	.	.
.	.	.	.	(12ccc	6a	.	(12ggg	.
8GGJ 8D	.	16d	.	.	.	.	.	.
.	.	.	.	12bb-XJ)	.	]	12fffJ)	]
.	.	16AJJ	.	.	.	.	.	.
*	*	*	*	*v	*v	*	*	*
=11	=11	=11	=11	=11	=11	=11	=11
[4DD [4AA	.	[4F [4c	.	12aL 12ff	<	12cccL	<
.	.	.	.	(12ff	.	(12ccc	.
.	.	.	.	12ggJ)	[	12dddJ)	[
=12	=12	=12	=12	=12	=12	=12	=12
*	*	*	*	*^	*	*	*
8DDL] 8AA]	.	16FLL] 16c]	.	12bb-XL	12a	>	12fffL	>
.	.	16c	.	.	.	.	.	.
.	.	.	.	(12bb-	6a	.	(12fff	.
8GGJ 8D	.	16d	.	.	.	.	.	.
.	.	.	.	12aaJ)	.	]	12eeeJ)	]
.	.	16AJJ	.	.	.	.	.	.
*	*	*	*	*v	*v	*	*	*
=13	=13	=13	=13	=13	=13	=13	=13
[4DD [4AA	p	[4c	p	12a 12ee	.	12bbL	.
.	.	.	.	12r	.	(12dd	mf
.	.	.	.	12r	.	12eeJ)	.
=14	=14	=14	=14	=14	=14	=14	=14
4DD_ 4AA_	.	\16cLL]	.	12r	.	12ffL	<
.	.	16B	.	.	.	.	.
.	.	.	.	(12ddL	p	(12gg	.
.	.	16c	.	.	.	.	.
.	.	.	.	12eeJ)	.	12aaJ)	[
.	.	16c#XJJ	.	.	.	.	.
=15	=15	=15	=15	=15	=15	=15	=15
!	!	!	!	!	!	!LO:TX:b:i:t=cresc.	!
*grp:A	*	*grp:A	*	*grp:A	*	*grp:B	*
4DD] 4AA]	<	[4d	<	(16ffLL	<	(12bb-XL	>
.	.	.	.	16ee	.	.	.
.	.	.	.	.	.	12ddd)	.
.	.	.	.	16dd	.	.	.
.	.	.	.	.	.	(12aaJ	]
.	.	.	.	16ccJJ	.	.	.
=16	=16	=16	=16	=16	=16	=16	=16
*grp:A	*	*grp:A	*	*grp:B	*	*grp:B	*
[4GG [4D	.	16dLL]	.	12a)	.	12cccL)	.
.	.	16c#X	.	.	.	.	.
.	.	.	.	12r	.	(12gg	.
.	.	16d	.	.	.	.	.
.	.	.	.	12r	.	12aaJ)	.
.	.	16eJJ	.	.	.	.	.
=17	=17	=17	=17	=17	=17	=17	=17
*	*	*	*	*	*	*	*
4GG] 4D]	.	[4f	.	12r	.	12bb-XL	<
.	.	.	.	(12ggL	.	(12ccc	.
.	.	.	.	12aaJ)	.	12dddJ)	[
=18	=18	=18	=18	=18	=18	=18	=18
*grp:A	*	*grp:A	*	*grp:A	*grp:B	*grp:B	*
4FF 4C	.	16fLL]	.	(16bb-XLL	.	(12eee-XL	>
.	.	16e	.	16aa	.	.	.
.	.	.	.	.	.	12ggg)	.
.	.	16f	.	16gg	.	.	.
.	.	.	.	.	.	(12cccJ	]
.	.	16gJJ	.	16ffJJ	.	.	.
=19	=19	=19	=19	=19	=19	=19	=19
*grp:A	*	*grp:A	*	*grp:B	*	*grp:B	*
[4BB-X [4F	.	[4a-X	.	12cc)	.	12eee-XL)	.
.	.	.	.	12r	.	(12bb-X	.
.	.	.	.	12r	.	12cccJ)	.
!!LO:REH:t=20
=20	=20	=20	=20	=20	=20	=20	=20
*	*	*	*	*	*	*8va	*
4BB-] 4F]	.	16a-LL]	.	12r	.	12ddd-XL	.
.	.	16g	<	.	.	.	.
.	.	.	.	(12ccL	<	(12eee-X	<
.	.	16a-X	.	.	.	.	.
.	.	.	.	12ddJ)	.	12fffJ)	.
.	.	16b-XJJ	.	.	.	.	.
=21	=21	=21	=21	=21	=21	=21	=21
*grp:A	*	*grp:A	*	*grp:A	*	*grp:B	*
4AA-X 4E-X	<	[4bnt	.	16ffLL	.	(12gggL	.
.	.	.	.	16ee	.	.	.
.	.	.	.	.	.	12aaa-X)	.
.	.	.	.	16ff	.	.	.
.	.	.	.	.	.	(12gggJ	.
.	.	.	.	16ggJJ	.	.	.
=22	=22	=22	=22	=22	=22	=22	=22
[4DD [4GG	.	4b_t	.	16ffLL	.	12aaa-XL)	.
.	.	.	.	16ee	.	.	.
.	.	.	.	.	.	(12ggg#X	.
.	.	.	.	16ff	.	.	.
.	.	.	.	.	.	12aaanJ)	.
.	.	.	.	16ggJJ	.	.	.
=23	=23	=23	=23	=23	=23	=23	=23
4DD_ 4GG_	[	4b_t	[	16ffLL	.	(12ggg#XL	.
.	.	.	.	16ee	.	.	.
.	.	.	.	.	.	12aaa)	.
.	.	.	.	16ff	.	.	.
.	.	.	.	.	.	(12fff#XJi	[
.	.	.	.	16ggJJ	[	.	.
*	*	*	*	*	*	*X8va	*
=	=	=	=	=	=	=	=
*-	*-	*-	*-	*-	*-	*-	*-
!!!system-decoration: [(s1,s2,s3,s4)]
!!!RDF**kern: i = marked note, color="hotpink", text="extra("
!!!RDF**kern: j = marked note, color="magenta", text="extra)"
!!!EED2: Rafael Laurindo
!!!EEV2: 2022/03/03
!!!EED3: Bryan Bell
!!!Suter_Work_ID: Hin-9
!!!Suter_Example_Number: 613
!!!Suter_Example_ID: Hin-9/44/1-23
!!!Premiere_Location: Donaueschingen,Germany
!!!Other_Tsigs: none
!!!Full_Unit_Duration: 7:36
!!!First_Publication_Year: 1922
!!!First_Public_Performance_Year: 1921
!!!Example_Total_Measures: 23
!!!Example_Timestamp_Duration: 11
!!!Example_Start_Tsig_Type: polydurational
!!!Example_Start_Tsig_Mean_Beat_Rate: 330
!!!Example_Start_Tsig_Beat_Rate: 264;396
!!!Example_Start_Tsig_Beat: eighth;eighth
!!!Example_Start_Tsig: 2/8'3/8
!!!Example_Start_Timestamp: 0:00
!!!Example_Start_Tempo_Expression: Äußerst lebhaft
!!!Example_Start_Notated_Beat_Rate: 128-136;128-136
!!!Example_Start_Notated_Beat: quarter;dotted-quarter
!!!Example_Start_Measure: 1
!!!Example_Metadata_Validated: Y
!!!Example_End_Timestamp: 0:11
!!!Example_End_Measure: 23
!!!Example_Dataset: T
!!!Editorial_Comments:
!!!Death_Place: Frankfurt,Germany
!!!Death_Date: 28-Dec-1963
!!!Changing_Tsig: no
!!!Birth_Place: Hanau,Germany
!!!Birth_Date: 16-Nov-1895
!!!Audio_Example_Quarter_Note_Tempo:
!!!Audio_Example_Duration:
!!!EEV3: 2023/06/08
